X: 20502
T: John Leary's
R: slide
M: 12/8
K: Gmajor
|:DEF|G2 e dBG F2 E E2 G|FGA DEF G2 B DEF|
G2 e dBG F2 E E2 G|1 FGA DEF G2 B:|2 FGA DEF G3||
|:G2 B|d2 B g2 B d2 c A2 B|cBc efe d2 B G2 B|
d2 B g2 B d2 c A2 g|fed cBA G3:|
|:G2 g|
fed c2 e e2 d B2 c|ded cBA G2 B d2 g|
fed c2 e e2 d B2 c|1 ded cBA G3:|2 ded cBA G2 B||

